icons/4_Outdated/Oculus bg.var.svg

<svg width="1024" height="1024" viewBox="0 0 1024 1024" fill="none" xmlns="http://www.w3.org/2000/svg">
<g clip-path="url(#clip0_3_602)">
<path d="M512 1024C794.77 1024 1024 794.77 1024 512C1024 229.23 794.77 0 512 0C229.23 0 0 229.23 0 512C0 794.77 229.23 1024 512 1024Z" fill="#728DBE"/>
<path d="M714.53 390.14C696.287 375.507 675.027 365.101 652.28 359.67C639.257 356.7 625.972 355.025 612.62 354.67C602.62 354.41 592.62 354.41 582.71 354.41H441.53C431.53 354.41 421.53 354.41 411.59 354.67C398.187 355.017 384.852 356.692 371.78 359.67C349.048 365.109 327.802 375.515 309.57 390.14C291.287 404.754 276.527 423.295 266.383 444.389C256.24 465.483 250.973 488.589 250.973 511.995C250.973 535.401 256.24 558.507 266.383 579.601C276.527 600.695 291.287 619.236 309.57 633.85C327.802 648.475 349.048 658.881 371.78 664.32C384.806 667.289 398.094 668.964 411.45 669.32C421.45 669.59 431.45 669.59 441.39 669.59H582.59C592.59 669.59 602.59 669.59 612.53 669.32C625.879 668.965 639.16 667.29 652.18 664.32C674.927 658.89 696.187 648.483 714.43 633.85C732.713 619.236 747.473 600.695 757.616 579.601C767.76 558.507 773.026 535.401 773.026 511.995C773.026 488.589 767.76 465.483 757.616 444.389C747.473 423.295 732.713 404.754 714.43 390.14H714.53ZM645.67 554.27C638.725 558.92 630.836 561.97 622.57 563.2C614.17 564.53 606.02 564.25 597.57 564.25H426.44C418.04 564.25 409.89 564.52 401.44 563.2C393.168 561.968 385.272 558.918 378.32 554.27C371.472 549.541 365.867 543.229 361.981 535.87C358.095 528.51 356.043 520.322 356 512C355.98 503.664 358.005 495.45 361.896 488.077C365.787 480.704 371.426 474.398 378.32 469.71C385.275 465.069 393.17 462.02 401.44 460.78C409.84 459.47 417.99 459.78 426.44 459.78H597.66C606.06 459.78 614.21 459.51 622.66 460.78C630.906 462.025 638.777 465.074 645.71 469.71C652.553 474.446 658.152 480.764 662.033 488.126C665.913 495.488 667.96 503.678 668 512C668.013 520.335 665.984 528.546 662.09 535.915C658.195 543.284 652.554 549.586 645.66 554.27H645.67Z" fill="white"/>
</g>
<defs>
<clipPath id="clip0_3_602">
<rect width="1024" height="1024" fill="white"/>
</clipPath>
</defs>
</svg>

<svg xmlns="http://www.w3.org/2000/svg" viewBox="0 0 1024 1024">
   <circle cx="512" cy="512" r="512" style="fill:#1574d4"/>
   <path d="M714.53 390.14a158.21 158.21 0 0 0-62.25-30.47 202.55 202.55 0 0 0-39.66-5c-10-.26-20-.26-29.91-.26H441.53c-10 0-20 0-29.94.26a202.89 202.89 0 0 0-39.81 5 158.29 158.29 0 0 0-62.21 30.47 156 156 0 0 0 0 243.71 158.29 158.29 0 0 0 62.21 30.47 202.83 202.83 0 0 0 39.67 5c10 .27 20 .27 29.94.27h141.2c10 0 20 0 29.94-.27a202.52 202.52 0 0 0 39.65-5 158.19 158.19 0 0 0 62.25-30.47 156 156 0 0 0 0-243.71zm-68.86 164.13a56.45 56.45 0 0 1-23.1 8.93c-8.4 1.33-16.55 1.05-25 1.05H426.44c-8.4 0-16.55.27-25-1.05a56.6 56.6 0 0 1-23.12-8.93A51.7 51.7 0 0 1 356 512a51 51 0 0 1 22.32-42.29 56.83 56.83 0 0 1 23.12-8.93c8.4-1.31 16.55-1 25-1h171.22c8.4 0 16.55-.27 25 1a56.68 56.68 0 0 1 23.05 8.93A51.73 51.73 0 0 1 668 512a51 51 0 0 1-22.34 42.27z" style="fill:#fff"/>
</svg>
